svg/email-good.svg

<?xml version="1.0" encoding="utf-8"?>
<!-- Generated by IcoMoon.io -->
<!DOCTYPE svg PUBLIC "-//W3C//DTD SVG 1.1//EN" "http://www.w3.org/Graphics/SVG/1.1/DTD/svg11.dtd">
<svg version="1.1" xmlns="http://www.w3.org/2000/svg" xmlns:xlink="http://www.w3.org/1999/xlink" width="32" height="32" viewBox="0 0 32 32">
<path d="M14.662 7.344v6.991l-3.561-3.225v3.234l4.898 4.431 4.898-4.431v-3.234l-3.563 3.225v-6.991z"></path>
<path d="M17.605 23.762c-0.905 0.887-2.377 0.887-3.283 0l-1.959-1.922-10.364 10.159h27.931l-10.363-10.159-1.962 1.922z"></path>
<path d="M31.975 9.697l-0.033 0.032 0.018-0.034-13.939-8.855c-0.563-0.54-1.295-0.815-2.036-0.84v-0.001c-0.002 0-0.003 0-0.005 0s-0.003-0-0.005-0v0.001c-0.741 0.025-1.473 0.3-2.036 0.84l-13.939 8.855 0.028 0.054-0.028-0.027v19.798c0 0.561 0.169 1.053 0.409 1.477l10.648-10.438-9.348-9.162 13.351-8.506c0.251-0.239 0.573-0.357 0.903-0.384 0.33 0.027 0.652 0.145 0.903 0.384l13.362 8.513-9.359 9.155 10.695 10.484c0.258-0.431 0.434-0.941 0.434-1.523l-0.025-19.823z"></path>
</svg>

<svg xmlns="http://www.w3.org/2000/svg" width="32" height="32" viewBox="0 0 32 32"><path d="M14.662 7.344v6.991l-3.561-3.225v3.234l4.898 4.431 4.898-4.431V11.11l-3.563 3.225V7.344zM17.605 23.762a2.358 2.358 0 0 1-3.283 0l-1.959-1.922L1.999 31.999H29.93L19.567 21.84l-1.962 1.922z"/><path d="M31.975 9.697l-.033.032.018-.034L18.021.84A3.074 3.074 0 0 0 15.985 0v-.001h-.01V0c-.741.025-1.473.3-2.036.84L0 9.695l.028.054L0 9.722V29.52c0 .561.169 1.053.409 1.477l10.648-10.438-9.348-9.162L15.06 2.891c.251-.239.573-.357.903-.384.33.027.652.145.903.384l13.362 8.513-9.359 9.155 10.695 10.484c.258-.431.434-.941.434-1.523l-.025-19.823z"/></svg>
